X: 95
T: Boiereasca
O: Romanian klezmer
R: bulgar, sher
S: Dick Crum, Ron Wixman
M: 2/4
L: 1/16
K: Ador=c^d
|:E2 \
| "Am"A3B c3e | d2c2 e4 \
| defg agfe | fedc dcBA \
| defg agfe | d3c dcBA 
| deae agfe | d2e2 z2E2 \
| "Am"A3B c3e | d2c2 e4 \
| defg agfe | fedc dcBA 
| A^GAE cBcA | edec g4 \
!coda!\
| "B7"fedc "E7"dcBA | "Am"BcA2 z2 \
:: e2 \
| "Am"a3e agfe | aeae agfe 
| c'bag fedc | d3c dcBA \
| BcAc dece | gfed "E7"e4 \
| "Am"a3e agfe | aeae agfe 
| c'bag fedc | B2c2- c2ce \
| "B7"d3c "E7"cBBA | "Am"A4 z2 :|[K:Amix=g]\
|: [e2c2] \
| "A"[c8-A8-] | [c8A8] \
| {^d}[e8-c8-] | [e8c8] 
| cdef gfed | dccB BAe2 \
| ^deee eeee | agfe ^d2e2 \
| ^defg agfe 
| =c'bag fedc \
| "B7"^defe "E7"=d3c | "A"^BcA2 z2 :|\
!coda!\
| "E7"ze^de =f^f=g^g | "A"a2z2 "E7"e2z2 "Am"HA4 |]



